X:7
T:Araber Tantz
Z:Jack Campin, http://www.campin.me.uk
F:http://www.campin.me.uk/Music/EdinburghKlezmer.abc
M:4/4
L:1/8
Q:1/4=125
K:EPhr
  z2E2|^GA B2 B2 B2| c6       BA      |^GA B2 cB  AB|A^G3
  z2E2|^GA B2 B2 B2|(d4   d)c BA      |^GA B2 cB  AB|A^G3||
|:z4  | Ee2^d e2 B2| c3 d e2  d/c/B/A/|^G(A3  A)G FG|F E3:|
M:8/8
|:zE (3cBA     | ^G8              |   A8                 |\
                 ^GAB G2E FD      |   EF ^GA Be  BA      |
                 ^G8              |   A4                  \
  zE (3cBA     | ^GAB G2E FD      |   E4                :|
  ze   d/c/B/A/|:^GAB G2E F/E/F/D/|   EF ^GA Be  d/c/B/A/|
                 ^GAB G2E F/E/F/D/|[1 EE2 B, EB, E2     :|\
                                   [2 E6                |]
